icons/desktop/16/svg/labs-16.svg

<svg width="16" height="16" viewBox="0 0 16 16" fill="none" xmlns="http://www.w3.org/2000/svg">
<path fill-rule="evenodd" clip-rule="evenodd" d="M4.63709 1.25899C6.85509 0.913994 9.14458 0.913994 11.3666 1.25899C11.7762 1.32215 12.0562 1.7048 11.9935 2.11349C11.9355 2.48445 11.6163 2.75016 11.2533 2.75021H11.2513C11.2133 2.75021 11.1741 2.74742 11.1361 2.74142C11.0909 2.73443 11.0456 2.72759 11.0004 2.72091V7.28536C11.0005 7.47222 11.0698 7.65234 11.1957 7.79024L14.2201 11.1154C15.4998 12.5224 14.5672 14.776 12.6674 14.8781C11.2234 14.9561 9.71393 15.0002 8.14393 15.0002H8.01404C6.38521 14.9982 4.82138 14.9475 3.32752 14.8615C1.43652 14.7525 0.50195 12.5186 1.76795 11.1096L4.80701 7.72579C4.93101 7.58879 4.9994 7.40981 4.9994 7.22481V2.72188C4.9548 2.72848 4.91014 2.73453 4.86561 2.74142C4.46861 2.80542 4.07314 2.52349 4.01014 2.11349C3.94743 1.7047 4.22731 1.32202 4.63709 1.25899ZM9.50037 2.55489C8.50203 2.48217 7.49728 2.48312 6.4994 2.55587V7.51192C6.4994 7.88182 6.36247 8.23891 6.11561 8.51388L4.55604 10.2502H11.4056L9.89002 8.58419C9.63912 8.3083 9.50048 7.94824 9.50037 7.5754V2.55489Z" fill="black"/>
</svg>

<!-- This Source Code Form is subject to the terms of the Mozilla Public
   - License, v. 2.0. If a copy of the MPL was not distributed with this
   - file, You can obtain one at http://mozilla.org/MPL/2.0/. -->
<svg xmlns="http://www.w3.org/2000/svg" width="16" height="16" fill="context-fill" fill-opacity="context-fill-opacity" viewBox="0 0 16 16">
    <path fill-rule="evenodd" d="M4.637 1.259a22 22 0 0 1 6.73 0 .75.75 0 0 1-.114 1.491h-.002a1 1 0 0 1-.115-.009L11 2.721v4.564c0 .187.07.367.196.505l3.024 3.325c1.28 1.407.347 3.661-1.553 3.763A84 84 0 0 1 8.144 15h-.13a83 83 0 0 1-4.686-.139c-1.891-.109-2.826-2.342-1.56-3.751l3.039-3.384a.75.75 0 0 0 .192-.501V2.722l-.133.02a.75.75 0 1 1-.229-1.482M9.5 2.555a21 21 0 0 0-3 0v4.957a1.5 1.5 0 0 1-.384 1.002l-1.56 1.736h6.85L9.89 8.584a1.5 1.5 0 0 1-.39-1.009z" clip-rule="evenodd" />
</svg>
